!!!!SEGMENT: pl-cz--iii-50--002_brykner-jerzy--vesperae-confitebor.krn
!!!cenid: 17xx:844
!!!COM: Brykner, Jerzy
!!!COM-rismid: pe30025739
!!!CDT: 1705-1760
!!!CNT: Polish
!!!OPR: Vesperae
!!!OTL: Confitebor
!!!OMV: 002
!!!PDT:
!!!AGN: Sacred; Vespers
!!!SMS-siglum: PL-CZ
!!!SMS-shelfmark: III-50
!!!SMS-shelfwork: 001-002 M
!!!SMS-variant:
!!!SMS-altvar:
!!!NIFC-rismid: 300033583
!!!URL-scan: http://repozytorium.nifc.pl/skany/pl-cz-nut--iii-50
!!!ONB-nifc: UWAGA: części Vesperae: Dixit Dominus, Confitebor, Beatus vir, Laudate pueri, Laudate Dominum, In exitu, Laetatus sum, Nisi Dominus, Lauda Jerusalem, Credidi, In convertendo, Domine probasti me, Memento Domine David, Confitebor, De profundis, Beati omnes, Magnificat
**kern	**fba	**kern	**kern	**kern	**text	**kern	**text	**text	**kern	**kern
*part7	*part7	*part6	*part5	*part4	*part4	*part3	*part3	*part3	*part2	*part1
*staff7	*staff7	*staff6	*staff5	*staff4	*staff4	*staff3	*staff3	*staff3	*staff2	*staff1
*Iorgan	*	*Ivioln	*Ivioln	*Iempty	*	*Ivox	*	*	*Iempty	*Iempty
*I"Organo.	*	*I"Violini Secundo.	*I"Violini Primo.	*I"Baſso.	*	*I"Canto.	*	*	*I"Clarino2do	*I"Clarino 1mo
*I'org	*	*I'vl 2	*I'vl 1	*I'B	*	*I'S	*	*	*	*
*clefF4	*	*clefG2	*clefG2	*clefF4	*	*clefC1	*	*	*	*
*k[]	*	*k[]	*k[]	*k[]	*	*k[]	*	*	*	*
*a:	*	*a:	*a:	*a:	*	*a:	*	*	*	*
*M4/4	*	*M4/4	*M4/4	*M4/4	*	*M4/4	*	*	*	*
*met(c)	*	*met(c)	*met(c)	*met(c)	*	*met(c)	*	*	*	*
=1	=1	=1	=1	=1	=1	=1	=1	=1	=1	=1
!LO:TX:a:i:t=Solo.	!	!	!	!	!	!	!	!	!	!
!LO:TX:rj:b:t=Confitebor.	!	!LO:TX:b:t=Confitebor.	!LO:TX:b:t=Confitebor	!LO:TX:rj:b:t=Confitebor.	!	!LO:N:vis=4.	!	!	!	!
4AA/	.	0r	0r	2r	.	4a\	Con-	In	1ryy	1ryy
*2\right	*	*	*	*	*	*	*	*	*	*
!LO:SIC:o:s:=:v:2\right&colon;global	!	!	!	!	!	!	!	!	!	!
2A\	3	.	.	.	.	16ryy	.	.	.	.
.	.	.	.	.	.	16cc\	-fi-	te	.	.
.	.	.	.	.	.	16b\	-te-	Do-	.	.
.	2	.	.	.	.	16a\	-bor	-mi-	.	.
.	.	.	.	8E\	In	8b\	ti-	-ne	.	.
.	.	.	.	8E\	con-	8e/	-bi	ſpe-	.	.
*	*	*	*	*	*	*	*ij	*	*	*
4G#X\	.	.	.	16E\	-si-	8dd\	ti-	-ra-	.	.
.	.	.	.	16E\	-li-	.	.	.	.	.
.	.	.	.	16E\	-o	16cc\LL	-bi	-vi	.	.
.	.	.	.	16E\	ju-	16b\JJ	.	.	.	.
*	*	*	*	*	*	*	*Xij	*	*	*
=2	=2	=2	=2	=2	=2	=2	=2	=2	=2	=2
4A\	.	.	.	8A\	-sto-	16cc\	Do-	non	1ryy	1ryy
.	.	.	.	.	.	16b\	-mi-	con-	.	.
!	!	!	!	!LO:SIC:o:s:=:v:oddechy jako rozdzielacze słów	!	!	!	!	!	!
.	.	.	.	16A,\	-ru(m)	8.a\	-ne	-fun-	.	.
.	.	.	.	16A\	et	.	.	.	.	.
8C/L	6	.	.	8A\	con-	.	.	.	.	.
.	.	.	.	.	.	16cc\	in	.	.	.
8D/J	.	.	.	8d\	-gre-	16b\	to-	-dar	.	.
.	.	.	.	.	.	16a\	-to	in	.	.
8E\L	7 #	.	.	8d\	-ga-	8.g#X\	co-	ae-	.	.
8F\	.	.	.	8c\	-ti-	.	.	.	.	.
.	.	.	.	.	.	16a\	-rde	.	.	.
8D\	6 5	.	.	4B\	-o-	8a\L	me-	-ter-	.	.
8E\J	x #	.	.	.	.	8g#X\J	.	.	.	.
=3	=3	=3	=3	=3	=3	=3	=3	=3	=3	=3
!LO:TX:a:t=T.	!	!	!	!	!	!	!	!	!	!
!LO:TX:a:t=P:problem:mixed  beam	!	!	!	!	!	!	!	!	!	!
8AA/L	.	8r	16r	8A\	-ne,	8a\	-o,	-num	1ryy	1ryy
.	.	.	16ee\LL	.	.	.	.	.	.	.
16A\L	.	16cc/LL	16ee\	16A\	ma-	16cc\	ma-	In	.	.
16B\JJ	.	16dd/JJ	16ee\JJ	16B\	-gna	16dd\	-gna	.	.	.
8c\L	.	8ee/L	16ee\LL	8c\	o-	8ee\	o-	jus-	.	.
.	.	.	16ee\	.	.	.	.	.	.	.
8A\J	.	16dd/L	16aa\	16B\	-pe-	16cc\	-pe-	-ti-	.	.
!	!	!	!	!	!	!LO:SIC:o:s:=:v:oddechy jako rozdzielacze słów	!	!	!	!
.	.	16cc/JJ	16aa\JJ	16A\	-ra	16cc,\	-ra	-ti-	.	.
8e\L	6 4	8cc/L	8aa\L	8e\	Do-	16cc\	D(o-	-a	.	.
.	.	.	.	.	.	16b\	-mi)-	De-	.	.
!	!	!	!	!	!	!LO:SIC:o:s:=:v:custos ee	!	!	!	!
8E\J	5 #	8b/J	8gg#X\J	16E\	-mi-	8b\	-ni	-i	.	.
.	.	.	.	16E\	-ni	.	.	.	.	.
!	!	!	!	!LO:LB:g=original	!	!LO:LB:g=original	!	!	!	!
8r	.	8r	8r	8r	.	8r	.	.	.	.
!	!	!LO:SIC:o:s:=:v:16\right&colon;global	!	!	!	!	!	!	!	!
8E\	x #	16ee\LL	16gg#X\LL	16E\	ex-	16ee\	ex-	De-	.	.
.	.	16ee\JJ	16gg#\JJ	16E\	-qui-	16ee\	-qui-	-i	.	.
=4	=4	=4	=4	=4	=4	=4	=4	=4	=4	=4
!	!	!LO:SIC:o:s:=:v:8\right&colon;global	!	!	!	!	!	!	!	!
8E\L	4 2	8ff\L	8aa\L	8E\	-si-	8ff\	-si-	Li-	1ryy	1ryy
8D\	.	16ff\L	8bb\	16D\	-ta	16ff\	-ta	-be-	.	.
.	.	16ff\JJ	.	16D\	in	16ff\	in	-ra	.	.
8G\	x 7	8ff\L	8bb\	16G\	o-	16ff\	o-	me	.	.
.	.	.	.	16G\	-(mn)es	16ff\	-(mn)es	In-	.	.
8A\J	.	8ee\J	8ccc\J	16A\	vo-	16ee\	vo-	-cli-	.	.
!	!	!	!	!	!	!LO:SIC:l:s:t:=:v:drugi wers	!	!	!	!
.	.	.	.	16A\	-lun-	16ee\	-lun-	-ta	.	.
8F\L	6	16dd\LL	16ddd\LL	8F\	-ta-	16dd\LL	-ta-	ad	.	.
.	.	16ee\	16bb\	.	.	16ee\JJ	.	.	.	.
16E\L	6	16cc\	16ccc\	16E\LL	-tes	16cc\LL	-tes	me	.	.
16F\JJ	.	16dd\JJ	16ee\JJ	16F\JJ	.	16dd\JJ	.	.	.	.
!LO:TX:a:t=P:problem:mixed  beam	!	!LO:SIC:o:s:=:v:4\right&colon;global	!	!	!	!	!	!	!	!
8G\L	4	4ddT\	8dd\L	4G\	e-	4dd\	e-	au-	.	.
8GG/J	3	.	8bb\J	.	.	.	.	.	.	.
=5	=5	=5	=5	=5	=5	=5	=5	=5	=5	=5
8C/L	.	16cc\LL	16ccc\LL	8C,</	-jus	8ee,\	-jus	-rem	1ryy	1ryy
.	.	16ee\	16cc\	.	.	.	.	.	.	.
8C/	.	16ee\	16cc\	8c\	Con-	8gg\	con-	tu-	.	.
.	.	16ee\JJ	16cc\JJ	.	.	.	.	.	.	.
8C/	.	16gg\LL	16ee\LL	8c\	-feſ-	8ee\	-feſ-	-am	.	.
.	.	16gg\	16ee\	.	.	.	.	.	.	.
!LO:SIC:o:s:=:v:custos C	!	!	!	!	!	!	!	!	!	!
8C/J	.	16ee\	16gg\	16c\	-si-	16cc\	-si-	ac-	.	.
.	.	16ee\JJ	16gg\JJ	16c\	-o,	16cc\	-o,	-ce-	.	.
!LO:LB:g=original	!	!	!	!	!	!	!	!	!	!
!	!	!LO:TX:a:t=P:problem:mixed  beam	!	!	!	!	!	!	!	!
8C/L	.	16ee\LL	8ccc\L	16c\	et	16ee\	et	-le-	.	.
.	.	16e/	.	16C/	ma-	16ee\	ma-	-ra	.	.
16D/L	.	16f/	8ccc\	16D/	-gni-	16ee\	-gni-	ut	.	.
16E/JJ	.	16g/JJ	.	16E\	-fi-	16ee\	-fi-	e-	.	.
16F\LL	.	16a/LL	8ccc\	16F\LL	-cen-	16cc\LL	-cen-	-tu-	.	.
16G\	.	16b/	.	16G\JJ	.	16b\JJ	.	.	.	.
16A\	.	16cc/	8ccc\J	16A\	-ti-	16cc\	-ti-	-as	.	.
16B\JJ	.	16dd/JJ	.	16B\	-a	16dd\	-a	me	.	.
!	!	!	!LO:LB:g=original	!	!	!	!	!	!	!
=6	=6	=6	=6	=6	=6	=6	=6	=6	=6	=6
8c\L	.	8ee\L	8ccc\L	8c\	o-	8ee\	o-	de	1ryy	1ryy
8B\J	.	8gg\J	8ddd\J	8B\	-pus	8dd\	-pus	la-	.	.
!	!	!	!	!LO:LB:g=original	!	!	!	!	!	!
4c\	.	8.gg\L	4ddd\	4c\	e-	4ee\	e-	-que-	.	.
.	.	16aa\Jk	.	.	.	.	.	.	.	.
8G\L	.	8bb\L	8ddd\L	8G\	-jus,	8dd\	-jus	-o	.	.
8B\	.	16gg\L	16gg\L	16B\	et	16dd\	et	ve-	.	.
!	!	!LO:SIC:o:s:=:v:custos gg	!	!	!	!LO:SIC:o:s:=:v:custos ee	!	!	!	!
.	.	16gg\JJ	16gg\JJ	16B\	ju-	16dd\	Ju-	.	.	.
!	!	!LO:LB:g=original	!	!	!	!LO:LB:g=original	!	!	!	!
8c\	.	16gg\LL	16ee\LL	8c\	-sti-	8ee\	-sti-	-nan-	.	.
.	.	16gg\	16gg\	.	.	.	.	.	.	.
8A\J	6 5	16ff#X\	16aa\	16A\	-ti-	16ee\	-ti-	-ti-	.	.
.	.	16ff#\JJ	16cc\JJ	16A\	-a	16ee\	-a	-um	.	.
=7	=7	=7	=7	=7	=7	=7	=7	=7	=7	=7
!	!	!LO:SIC:s:=:v:16ff#	!	!	!	!	!	!	!	!
8B\L	.	16ff\LL	16dd\LL	8B\	e-	8dd\	e-	es-	1ryy	1ryy
!	!	!LO:SIC:s:=:v:16ff#	!	!	!	!	!	!	!	!
.	.	16ff\	16ff#X\	.	.	.	.	.	.	.
8G\	6 5	16ee\	16gg\	8G\	-jus	8dd\	-jus	-to	.	.
.	.	16ee\JJ	16b\JJ	.	.	.	.	.	.	.
8A\	.	16ee\LL	16cc\LL	8A\	ma-	8cc\	ma-	mi-	.	.
.	.	16ee\	16ee\	.	.	.	.	.	.	.
8F#X\J	6 5	16dd\	16ff#X\	16F#X\	-net	16cc\	-net	-hi	.	.
.	.	16dd\JJ	16a\JJ	16F#\	in	16cc\	in	in	.	.
!LO:TX:a:t=P:problem:mixed  beam	!	!	!	!	!	!	!	!	!	!
8G\L	.	8dd\L	8b\L	8G\	ſae-	8b\	ſae-	de-	.	.
8C/J	.	8ee\J	8gg\	16C/	-cu-	16a\	-cu-	-um	.	.
.	.	.	.	16C/	-lu(m)	16a\	-lu(m)	pro-	.	.
4D\	4	4a/	8gg\	8.D/	ſae-	8.a\	ſae-	-te-	.	.
.	#	.	8ff#X\J	.	.	.	.	.	.	.
.	.	.	.	16D/	-cu-	16g\	-cu-	-cto-	.	.
=8	=8	=8	=8	=8	=8	=8	=8	=8	=8	=8
4GG/	.	4b/	4gg\	8GG/	-li,	4g\	-li.	-rem	1ryy	1ryy
.	.	.	.	8G\	me-	.	.	.	.	.
!LO:TX:rj:a:t=S&colon;	!	!	!	!	!	!	!	!	!	!
4BB/	6	4r	4r	8.G\	-mo-	4r	.	.	.	.
.	3	.	.	16F\	-ri-	.	.	.	.	.
4C/	6	4r	16r	4E\	-am	2r	.	.	.	.
.	.	.	16ee\LL	.	.	.	.	.	.	.
.	.	.	16aa\	.	.	.	.	.	.	.
.	.	.	16gg\JJ	.	.	.	.	.	.	.
4D/	#	16r	8ff#X\L	8r	.	.	.	.	.	.
.	.	16a\LL	.	.	.	.	.	.	.	.
.	.	16dd\	8dd\J	16A\	fe-	.	.	.	.	.
.	.	16cc\JJ	.	16A\	-cit	.	.	.	.	.
!	!	!	!	!LO:LB:g=original	!	!	!	!	!	!
=9	=9	=9	=9	=9	=9	=9	=9	=9	=9	=9
!	!	!	!	!	!	!LO:TX:a:t=3.	!	!	!	!
4G\	x 9	8b\L	4.bb\	16A\	mi-	0r	.	.	1ryy	1ryy
.	.	.	.	16A\	-ra-	.	.	.	.	.
.	x 8	8b\	.	16G\	-bi-	.	.	.	.	.
.	.	.	.	16G\	-li-	.	.	.	.	.
4A\	x 9	8cc\	.	8c\	-um	.	.	.	.	.
.	x 8	8cc\J	8aa\	8c\	ſu-	.	.	.	.	.
4B\	x 9	8dd\L	4.ddd\	8c\	-o-	.	.	.	.	.
.	x 8	8dd\	.	16B,\	-ru(m)	.	.	.	.	.
.	.	.	.	16B\	mi-	.	.	.	.	.
!LO:TX:a:t=P:problem:mixed  beam	!	!	!	!	!	!	!	!	!	!
8c\L	9 7	8ee\	.	8B\	-ſe-	.	.	.	.	.
8C/J	8 6	8ee\J	8ccc\	8A\	-ri-	.	.	.	.	.
=10	=10	=10	=10	=10	=10	=10	=10	=10	=10	=10
8D\L	7 #	8ff#X\L	8ccc\L	16A\	-cors,	.	.	.	1ryy	1ryy
.	.	.	.	16A\	et	.	.	.	.	.
8E\	.	8gg\	8bb\	16G\	mi-	.	.	.	.	.
.	.	.	.	16G\	-ſe-	.	.	.	.	.
8E\	.	8b\	8bb\	8G\	-ra-	.	.	.	.	.
8D\J	6	8ff#\J	8bb\J	8F#X\	-tor	.	.	.	.	.
!	!	!LO:TX:a:t=P:problem:mixed  beam	!	!	!	!	!	!	!	!
4C/	7	8g/L	8bb\L	8.E\	D(o-	.	.	.	.	.
.	6	8ee\J	8aa\J	.	.	.	.	.	.	.
.	.	.	.	16E\	-mi)-	.	.	.	.	.
4BB/	#	4f#X/	4bb\	8D#X\	-n(us)	.	.	.	.	.
.	.	.	.	16F#X\	es-	.	.	.	.	.
.	.	.	.	16BB/	-cam	.	.	.	.	.
=11	=11	=11	=11	=11	=11	=11	=11	=11	=11	=11
4D#X\	6	8r	8r	8B\	de-	1r	.	.	1ryy	1ryy
.	.	4b/	16ff#X\LL	16A\	-dit	.	.	.	.	.
!	!	!	!	!LO:SIC:o:s:=:v:custos G	!	!	!	!	!	!
.	.	.	16b\JJ	16B\	ti-	.	.	.	.	.
!	!	!	!	!LO:LB:g=original	!	!	!	!	!	!
8E\L	.	.	8gg\L	8G\	-men-	.	.	.	.	.
8A\J	.	16a/LL	16ff#\L	[8c\	.	.	.	.	.	.
.	.	16g/JJ	16ee\JJ	.	.	.	.	.	.	.
!	!	!	!LO:LB:g=original	!	!	!	!	!	!	!
4.D#X\	7	8f#X/	4.aa\	16c\LL]	.	.	.	.	.	.
.	.	.	.	16A\	.	.	.	.	.	.
!	!	!LO:SIC:s:=:v:4ff#	!	!	!	!	!	!	!	!
.	6	4ff\	.	16F#X\	.	.	.	.	.	.
.	.	.	.	16A\JJ	.	.	.	.	.	.
.	.	.	.	8D#X\L	.	.	.	.	.	.
!LO:SIC:o:s:=:v:custos BB	!	!	!	!	!	!	!	!	!	!
8E\	.	8ee\	8gg\	8E\J	.	.	.	.	.	.
!LO:LB:g=original	!	!LO:LB:g=original	!	!	!	!	!	!	!	!
=12	=12	=12	=12	=12	=12	=12	=12	=12	=12	=12
!	!	!LO:TX:a:t=P:problem:mixed  beam	!	!	!	!	!	!	!	!
2BB/	4	8dd#X\L	16ff#X\LL	4.BB/	.	4r	.	.	1ryy	1ryy
.	.	.	16dd#X\JJ	.	.	.	.	.	.	.
.	.	16ee\L	4ee\	.	.	.	.	.	.	.
.	.	16e/JJ	.	.	.	.	.	.	.	.
.	#	4f#X/	.	.	.	8r	.	.	.	.
.	.	.	8dd#X\	16BB/	-ti-	16f#X/	Me-	quo-	.	.
.	.	.	.	16BB/	-bus	16f#/	-mor	-ni-	.	.
4E\	.	4e/	8ee\L	4E\	se.	8g/	e-	-am	.	.
.	.	.	8ee\	.	.	16f#/	-rit	.	.	.
.	.	.	.	.	.	16e/	in	.	.	.
8E\L	6	16r	8gg\	4r	.	8cc\	ſae-	quo-	.	.
.	.	16cc\LL	.	.	.	.	.	.	.	.
8F#X\J	.	16b\	8aa\J	.	.	16b\	-cu-	-ni-	.	.
.	.	16a\JJ	.	.	.	16a\	-lu(m)	-am	.	.
=13	=13	=13	=13	=13	=13	=13	=13	=13	=13	=13
!LO:TX:a:t=P:problem:mixed  beam	!	!	!	!LO:TX:a:t=2	!	!	!	!	!	!
8G\L	.	16b\LL	8dd\L	0r	.	16b\LL	te-	For-	1ryy	1ryy
.	.	16ee\	.	.	.	16ee\JJ	.	.	.	.
8BB/	.	16dd\	16gg\L	.	.	16dd\LL	-sta-	-ti-	.	.
!	!	!	!	!	!	!LO:SIC:o:s:=:v:custos cc	!	!	!	!
.	.	16ee\JJ	16ff#X\JJ	.	.	16ee\JJ	.	.	.	.
!	!	!	!	!	!	!LO:LB:g=original	!	!	!	!
8C/	.	16cc\LL	16ee\LL	.	.	16cc\LL	-men-	-tu-	.	.
.	.	16b\	16dd\	.	.	16b\JJ	.	.	.	.
8C#X/J	6	16a\	16cc\	.	.	16a\LL	-ti	.	.	.
.	.	16g\JJ	16b\JJ	.	.	16g\JJ	.	.	.	.
4D\	#	8f#X/L	4a/	.	.	8f#X/	ſu-	-do	.	.
.	.	8d/J	.	.	.	16d/	-i	.	.	.
.	.	.	.	.	.	16d/	vir-	.	.	.
8r	.	8r	8r	.	.	[4dd\	-tu-	me	.	.
16G\LL	.	16b/LL	[8dd\	.	.	.	.	.	.	.
16Fn\JJ	.	16a/JJ	.	.	.	.	.	.	.	.
=14	=14	=14	=14	=14	=14	=14	=14	=14	=14	=14
!LO:TX:a:t=P:problem:mixed  beam	!	!	!	!	!	!	!	!	!	!
8E\L	#	8g#X/L	16dd\LL]	.	.	16dd\LL]	.	.	1ryy	1ryy
.	.	.	16cc\	.	.	16cc\JJ	.	.	.	.
8E\	.	8g#/	16dd\	.	.	16dd\LL	-tem	et	.	.
.	.	.	16b\JJ	.	.	16b,\JJ	.	.	.	.
8A\	.	8e/	8cc\L	.	.	16cc\	o-	Re-	.	.
.	.	.	.	.	.	16cc\	-pe-	-fu-	.	.
8C/J	.	8e/J	8a\J	.	.	16a\	-ru(m)	-gi-	.	.
.	.	.	.	.	.	16a\	ſu-	-um	.	.
!	!	!	!LO:SIC:s:=:v:8ffn	!	!	!	!	!	!	!
8D/L	.	8e/L	8ff-X\L	.	.	8ff\	-o-	me-	.	.
8C/	6	8a/	8ee\	.	.	16ee\	-ru(m)	-um	.	.
.	.	.	.	.	.	16ee\	a(n)-	es	.	.
8BB/	6\	8g#X/	8dd\	.	.	8dd\	-nun-	tu	.	.
8AA/J	.	8a/J	8cc\J	.	.	16ee\LL	-ti-	.	.	.
.	.	.	.	.	.	16ff\JJ	.	.	.	.
=15	=15	=15	=15	=15	=15	=15	=15	=15	=15	=15
16E\LL	#	8e/L	8.bt/L	2r	.	8g#X\	-a-	.	1ryy	1ryy
16F\	.	.	.	.	.	.	.	.	.	.
16E\	.	8e/J	.	.	.	16a\LL	-bit	.	.	.
16D\JJ	.	.	32a/LL	.	.	16b\JJ	.	.	.	.
.	.	.	32b/JJJ	.	.	.	.	.	.	.
8C\L	6	8e/L	8cc/L	.	.	8e/	po-	.	.	.
8D\J	.	16a/L	16b/L	.	.	16a\	-pu-	.	.	.
.	.	16b/JJ	16a/JJ	.	.	16b\	-lo	.	.	.
4E\	4	4bt/	4g#Xt/	4r	.	4b\	ſu-	.	.	.
.	#	.	.	.	.	.	.	.	.	.
!LO:TX:a:t=P:problem:mixed  beam	!	!	!	!	!	!	!	!	!	!
8AA/L	.	8a/L	16a\LL	8r	.	8a\	-o,	.	.	.
.	.	.	16cc\	.	.	.	.	.	.	.
!LO:TX:a:t=T.	!	!	!	!	!	!	!	!	!	!
8A\J	.	16cc/L	16ee\	16A\	Ut	16cc\	ut	.	.	.
.	.	16a/JJ	16aa\JJ	16A\	det	16cc\	det	.	.	.
=16	=16	=16	=16	=16	=16	=16	=16	=16	=16	=16
8F\L	6	8ff\L	8dd\L	8F\	il-	8dd\	il-	.	1ryy	1ryy
8G\J	.	16ee\L	16gg\L	16G\	-lis	16cc\	-lis	.	.	.
.	.	16dd\JJ	16ff\JJ	16G\	hae-	16b\	hae-	.	.	.
!	!	!	!	!	!	!LO:PB:g=original	!	!	!	!
!LO:TX:a:t=P:problem:mixed  beam	!	!	!	!	!	!	!	!	!	!
8C/L	.	16ee\LL	16ee\LL	8C/	-re-	16cc\LL	-re-	.	.	.
.	.	16dd\	16ff#X\	.	.	16dd\JJ	.	.	.	.
8c\J	#	16cc\	16gg\	8c\	-di-	8ee\	-di-	.	.	.
.	.	16b\JJ	16aa\JJ	.	.	.	.	.	.	.
8c\L	4 2	8a/L	8ff#X\L	8c\	-ta-	8dd\	-ta-	.	.	.
8B\J	x 6	8b/J	8gg\	8B\	-tem	8g\	-te(m)	.	.	.
4A\	x 7	4ccT\	8gg\	8.A\	gen-	8.cc\	gen-	.	.	.
.	x 6	.	8ff#\J	.	.	.	.	.	.	.
.	.	.	.	16A\	-ti-	16cc\	-ti-	.	.	.
!	!	!	!LO:LB:g=original	!	!	!	!	!	!	!
=17	=17	=17	=17	=17	=17	=17	=17	=17	=17	=17
!	!	!	!	!LO:SIC:o:s:=:v:custos G	!	!	!	!	!	!
4G\	.	8b/L	8gg\L	4G\	-um	4b\	-um	.	1ryy	1ryy
.	.	16g/L	16b\L	.	.	.	.	.	.	.
.	.	16a/JJ	16cc\JJ	.	.	.	.	.	.	.
!	!	!LO:SIC:o:s:=:v:custos b	!	!	!	!	!	!	!	!
!	!	!LO:LB:g=original	!	!LO:LB:g=original	!	!	!	!	!	!
8G\L	.	8b\L	8dd\L	8G\	o-	8b\	o-	.	.	.
8A\J	.	8cc\J	8gg\J	16A\	-pe-	16cc\	-pe-	.	.	.
.	.	.	.	16A\	-ra	16cc\	-ra	.	.	.
8B\L	.	8dd\L	8gg\L	8B\	ma-	8dd\	ma-	.	.	.
16A\L	.	16cc\L	8gg\	16A\	-nu-	16cc\	-nu-	.	.	.
16B\JJ	.	16dd\JJ	.	16B\	-u(m)	16dd\	-um	.	.	.
!LO:TX:a:t=P:problem:mixed  beam	!	!	!	!	!	!	!	!	!	!
8c\L	.	8ee\L	8gg\	8c\	e-	16ee\LL	e-	.	.	.
.	.	.	.	.	.	16dd\JJ	.	.	.	.
!LO:SIC:o:s:=:v:custos C	!	!	!	!	!	!	!	!	!	!
8C/J	.	8g\J	8gg\J	8C/	-jus	8cc\	-jus	.	.	.
!LO:LB:g=original	!	!	!	!	!	!	!	!	!	!
=18	=18	=18	=18	=18	=18	=18	=18	=18	=18	=18
8r	.	[4ee\	8r	8r	.	4.ee\	ve-	.	1ryy	1ryy
8C/	.	.	8ee\L	8C/	ve-	.	.	.	.	.
!	!	!	!LO:N:vis=16.	!	!	!	!	!	!	!
4F\	7	8ee\]	8.aa\	8F\	.	.	.	.	.	.
.	6	4dd\	.	16F\	-ri-	16dd\	-ri-	.	.	.
!	!	!	!LO:N:vis=32	!	!	!	!	!	!	!
.	.	.	16bb\Jk	16F\	-tas,	16dd\	-tas,	.	.	.
8E\L	7 #	.	8gg#X\L	8E\	et	8dd\	et	.	.	.
8A\J	.	8cc\	8aa\	8A\	ju-	8cc\	ju-	.	.	.
4E\	4	4b/	8aa\	8.E\	-di-	8.b\	-di-	.	.	.
.	#	.	8gg#\J	.	.	.	.	.	.	.
.	.	.	.	16E\	-ci-	16a\	-ci-	.	.	.
=19	=19	=19	=19	=19	=19	=19	=19	=19	=19	=19
4AA/	.	8a\L	8aa\L	8AA/	-um	4a\	-um.	.	1ryy	1ryy
.	.	8cc\J	8cc\J	8A\	fi-	.	.	.	.	.
!	!	!	!	!	!	!LO:SIC:o:s:=:v:custos ee	!	!	!	!
4BB/	7	8.ddT\L	8.ddT\L	8.A\	-de-	4r	.	.	.	.
.	6\	32cc\LL	32cc\LL	16G#X\	-li-	.	.	.	.	.
.	.	32dd\JJJ	32dd\JJJ	.	.	.	.	.	.	.
!	!	!	!	!	!	!LO:LB:g=original	!	!	!	!
!LO:TX:a:t=S&colon;	!	!LO:TX:a:t=P:problem:mixed  beam	!	!	!	!	!	!	!	!
8C/L	6\	8ee\L	(32ee\LLL	4A\	-a,	16ee\	om-	.	.	.
.	.	.	32dd\JJ)	.	.	.	.	.	.	.
.	.	.	8.cc\J	.	.	16ee\	-ni-	.	.	.
8AA/	.	16e/L	.	.	.	16dd\	-a	.	.	.
.	.	16f#X/JJ	.	.	.	16cc\	man-	.	.	.
8BB/	6	8g/L	(32dd\LLL	4r	.	8dd\	-da-	.	.	.
.	.	.	32cc\JJ)	.	.	.	.	.	.	.
.	.	.	8.b\J	.	.	.	.	.	.	.
8GG/J	.	8g/J	.	.	.	16cc\LL	-ta	.	.	.
.	.	.	.	.	.	16b\JJ	.	.	.	.
=20	=20	=20	=20	=20	=20	=20	=20	=20	=20	=20
4AA/	7	8g/L	4ccT\	4r	.	4cc\	e-	.	1ryy	1ryy
.	6	8f#X/J	.	.	.	.	.	.	.	.
!LO:TX:a:t=P:problem:mixed  beam	!	!	!	!	!	!	!	!	!	!
8GG/L	.	4g/	16b/LL	8r	.	4b\	-jus	.	.	.
.	.	.	16b/	.	.	.	.	.	.	.
8G\J	.	.	16a/	16G\	con-	.	.	.	.	.
.	.	.	16b/JJ	16G\	-fir-	.	.	.	.	.
8G\L	2	8a\L	8cc\L	8A\	-ma-	8a\	fa-	.	.	.
8F\	6	8dd\	8aa\	16A\	-ta	16dd\	-cta	.	.	.
!	!	!	!	!LO:SIC:o:s:=:v:custos G	!	!	!	!	!	!
.	.	.	.	16A\	in	16cc\	in	.	.	.
!	!	!	!	!LO:LB:g=original	!	!	!	!	!	!
8F\	2	8dd\	8b\	8G\	ſae-	8b\	ve-	.	.	.
8E\J	6	8cc\J	8gg\J	16G\	-cu-	8cc\	-ri-	.	.	.
.	.	.	.	16G\	-lum	.	.	.	.	.
=21	=21	=21	=21	=21	=21	=21	=21	=21	=21	=21
8E\L	2	8cc\L	16ff\LL	16F\LL	ſae-	4a\	-ta-	.	1ryy	1ryy
.	.	.	16ee\	16G\	.	.	.	.	.	.
8D\	5	8dd\	16ff\	16A\	.	.	.	.	.	.
.	.	.	16gg\JJ	16B\JJ	.	.	.	.	.	.
8E\	6	8g\	8ee\L	8c\L	.	8g\	-te,	.	.	.
8F\J	6	8dd\J	16dd\L	16B\L	.	8dd\	et	.	.	.
.	.	.	16cc\JJ	16A\JJ	.	.	.	.	.	.
8G\L	.	8dd\L	8b\L	8B\L	.	8dd\	e-	.	.	.
8C\J	.	8cc\J	8ee\J	8c\J	.	8cc\	-qui-	.	.	.
4GG/	4	4b/	4dd\	8.G\	.	4b\	-ta-	.	.	.
.	3	.	.	16G\	-cu-	.	.	.	.	.
=22	=22	=22	=22	=22	=22	=22	=22	=22	=22	=22
4C/	.	4cc\	4ee\	4C/	-li.	8cc,\	-te	.	1ryy	1ryy
.	.	.	.	.	.	8cc\	Re-	In	.	.
8r	.	4r	4r	4r	.	8ee\	-de(m)-	ma-	.	.
16E\LL	.	.	.	.	.	8gg\	-pti-	-nuſ	.	.
16F\JJ	.	.	.	.	.	.	.	.	.	.
8G\L	.	4r	4r	2r	.	8b\	-o-	tu-	.	.
8C\J	.	.	.	.	.	8cc,\	-nem	-as	.	.
8F\L	.	8r	8r	.	.	8a\	mi-	Com-	.	.
8E\J	.	8g/	8cc\	.	.	8g\	-sit	-men-	.	.
!	!	!LO:LB:g=original	!LO:LB:g=original	!	!	!LO:LB:g=original	!	!	!	!
=23	=23	=23	=23	=23	=23	=23	=23	=23	=23	=23
!LO:TX:a:t=P:problem:mixed  beam	!	!	!	!LO:TX:a:t=2	!	!	!	!	!	!
8F\L	.	8a/L	16dd\LL	0r	.	8a\	po-	-do	1ryy	1ryy
.	.	.	16b\JJ	.	.	.	.	.	.	.
8E\	.	8g/J	4cc\	.	.	16g\	-pu-	.	.	.
.	.	.	.	.	.	16g\	-lo	.	.	.
8D\	7	4f/	.	.	.	4f/	ſu-	ſpi-	.	.
8GG/J	7	.	8b\	.	.	.	.	.	.	.
8C/L	.	4e/	4cc\	.	.	8e/	-o	.	.	.
8C/	.	.	.	.	.	16c/LL	man-	-ri-	.	.
.	.	.	.	.	.	16d/JJ	.	.	.	.
8C/	.	8r	4r	.	.	16e/LL	-da-	-tum	.	.
.	.	.	.	.	.	16f/JJ	.	.	.	.
!LO:SIC:o:s:=:v:custos D	!	!	!	!	!	!	!	!	!	!
8C/J	.	8e/	.	.	.	16g\LL	-vit	.	.	.
.	.	.	.	.	.	16a\JJ	.	.	.	.
!LO:LB:g=original	!	!	!	!	!	!	!	!	!	!
=24	=24	=24	=24	=24	=24	=24	=24	=24	=24	=24
8D\L	-6	8.f/L	8r	.	.	4.b-X\	in	me-	1ryy	1ryy
8D\	.	.	4b-X/	.	.	.	.	.	.	.
.	.	32e/LL	.	.	.	.	.	.	.	.
.	.	32f/JJJ	.	.	.	.	.	.	.	.
8E\	6 5	8.g/L	.	.	.	.	.	.	.	.
8E\J	.	.	16a/LL	.	.	16a\LL	ae-	.	.	.
.	.	32f/LL	16g/JJ	.	.	16g\JJ	.	.	.	.
.	.	32g/JJJ	.	.	.	.	.	.	.	.
8F\L	.	16a/LL	8a\L	.	.	8a\	-ter-	-um	.	.
.	.	16a/	.	.	.	.	.	.	.	.
8B-X\J	.	16g/	[8dd\J	.	.	8dd\	-nu(m)	.	.	.
.	.	16f/JJ	.	.	.	.	.	.	.	.
8E\L	7	[4g/	16dd\LL]	.	.	16dd\LL	te-	Re-	.	.
.	.	.	16b-X\	.	.	16b-X\JJ	.	.	.	.
8A\J	7	.	16cc\	.	.	16cc\LL	-sta-	-de-	.	.
.	.	.	16a\JJ	.	.	16a\JJ	.	.	.	.
=25	=25	=25	=25	=25	=25	=25	=25	=25	=25	=25
8E\L	6 5	8g/L]	16b-X/LL	2r	.	16b-X\LL	-men-	-mi-	1ryy	1ryy
.	.	.	16g/	.	.	16g\JJ	.	.	.	.
8F\J	.	8f/	16a/	.	.	16a\LL	-tum	-sti	.	.
.	.	.	16f/JJ	.	.	16f\JJ	.	.	.	.
4C/	4	8f/	4g/	.	.	4g\	ſu-	me	.	.
.	3	8e/J	.	.	.	.	.	.	.	.
4FF/	.	4f/	4f/	4r	.	4f,/	-u(m)	.	.	.
!LO:TX:a:t=Tutti.	!	!	!	!	!	!	!	!	!	!
[4F\	.	4r	4r	[4F\	San-	[4a\	San-	Do-	.	.
=26	=26	=26	=26	=26	=26	=26	=26	=26	=26	=26
2F\]	.	16r	16r	4F\]	.	4a\]	.	-mi-	1ryy	1ryy
.	.	16ff\LL	16ff\LL	.	.	.	.	.	.	.
.	.	16aa\	16aa\	.	.	.	.	.	.	.
.	.	16ff\JJ	16ff\JJ	.	.	.	.	.	.	.
.	.	16cc\LL	16cc\LL	4FF/	-ctum,	4a\	-ctum,	-ne	.	.
.	.	16ff\	16ff\	.	.	.	.	.	.	.
.	.	16a\	16a\	.	.	.	.	.	.	.
.	.	16cc\JJ	16cc\JJ	.	.	.	.	.	.	.
!	!	!	!LO:TX:a:t=P:problem:mixed  beam	!	!	!	!	!	!	!
8r	.	8f/L	8f/L	8r	.	8r	.	.	.	.
8F\L	.	8a/	8aa\J	16F\	et	16ff\	et	De-	.	.
.	.	.	.	16F\	ter-	16ff\	ter-	-us	.	.
!	!	!	!	!	!	!LO:LB:g=original	!	!	!	!
8G\	9 7	8b-X/	8aa\L	8G\	-ri-	8ff\	-ri-	Ve-	.	.
.	8 6	.	.	.	.	.	.	.	.	.
8G\J	x 5	8b-/J	16gg\L	16G\	-bi-	16ee\	-bi-	-ri-	.	.
.	.	.	16ff\JJ	16G\	-le	16dd\	-le	.	.	.
=27	=27	=27	=27	=27	=27	=27	=27	=27	=27	=27
8A\L	#	8a/L	8ee\L	8A\	No-	8cc#X\	No-	-ta-	1ryy	1ryy
8A\J	.	8a/	16dd\L	8A\	-men	8cc#\	-men	-tis	.	.
.	.	.	16cc#X\JJ	.	.	.	.	.	.	.
4B-X\	7	8a/	4dd\	4B-X\	e-	4dd\	e-	.	.	.
.	6	8g/J	.	.	.	.	.	.	.	.
8A\L	#	8a/L	8ee\L	8A,\	-j(us)	8cc#X,\	-jus	De-	.	.
!	!	!	!	!LO:SIC:o:s:=:v:custos G	!	!	!	!	!	!
8A\	.	8a/	8ee\	8A\	i-	8cc#\	i-	-us	.	.
!	!	!	!	!LO:LB:g=original	!	!	!	!	!	!
8G\	_	8a/	8ee\	8G\	-ni-	8cc#\	-ni-	.	.	.
8G\J	.	8a/J	8ee\J	16G\	-ti-	16cc#\	-ti-	Ve-	.	.
.	.	.	.	16G\	-um	16cc#\	-um	-ri-	.	.
!	!	!	!LO:LB:g=original	!	!	!	!	!	!	!
=28	=28	=28	=28	=28	=28	=28	=28	=28	=28	=28
!	!	!LO:TX:a:t=P:problem:mixed  beam	!	!	!	!	!	!	!	!
8F\L	6	8a/L	8ff\L	8F\	ſa-	8dd\	ſa-	-ta-	1ryy	1ryy
8D\	.	8ff\	8aa\	8D\	-pi-	8dd\	-pi-	-tis	.	.
8A\	#	8ee\	8aa\	8A\	-en-	8cc#X\	-en-	De-	.	.
8A\J	.	8ee\J	8aa\J	16A\	-ti-	16cc#\	-ti-	-us	.	.
.	.	.	.	16A\	-ae	16cc#\	-ae	.	.	.
!LO:TX:a:t=P:problem:mixed  beam	!	!	!	!	!	!	!	!	!	!
8A\L	.	8ee\L	8aa\L	8A\	ti-	8cc#\	ti-	Ve-	.	.
8G#X\	7 5	8ff\	8bb-X\J	8G#X\	-mor	8dd\	-mor	-ri-	.	.
8A\	x #	8.ee\	16aa\LL	8.A\	Do-	8.cc#X\	Do-	-ta-	.	.
.	.	.	16gg\	.	.	.	.	.	.	.
8AA/J	.	.	16ff\	.	.	.	.	.	.	.
.	.	16dd\Jk	16ee\JJ	16A\	-mi-	16dd\	-mi-	.	.	.
!	!	!LO:LB:g=original	!	!	!	!	!	!	!	!
=29	=29	=29	=29	=29	=29	=29	=29	=29	=29	=29
!LO:TX:a:t=S.	!	!	!	!	!	!	!	!	!	!
4.D\	.	4dd\	4ff\	4D\	-ni	4dd\	-ni.	-tis	1ryy	1ryy
.	.	4r	4r	8.F\	In-	4r	.	.	.	.
!LO:SIC:o:s:=:v:custos F	!	!	!	!	!	!	!	!	!	!
8E\	.	.	.	.	.	.	.	.	.	.
.	.	.	.	16G\	-tel-	.	.	.	.	.
!LO:LB:g=original	!	!	!	!	!	!	!	!	!	!
4F\	6	8r	4r	8A\	-lec-	2r	.	.	.	.
.	.	8a/L	.	8D/	-t(us)	.	.	.	.	.
8G\L	-	8d/	8r	8B-X\	bo-	.	.	.	.	.
8C\J	.	8e/J	8ee\	16A\LL	-nus	.	.	.	.	.
.	.	.	.	16G\JJ	.	.	.	.	.	.
=30	=30	=30	=30	=30	=30	=30	=30	=30	=30	=30
!	!	!	!	!	!	!LO:TX:a:t=3.	!	!	!	!
8F\L	.	16f/LL	8cc\L	8A\	o-	0r	.	.	1ryy	1ryy
.	.	16g/	.	.	.	.	.	.	.	.
8E\	.	16f/	16dd\L	16A\	-mni-	.	.	.	.	.
.	.	16g/JJ	16ee\JJ	16A\	-b(us)	.	.	.	.	.
8D\	.	8a/L	8.ff\L	8.d\	fa-	.	.	.	.	.
8F\J	.	8a/J	.	.	.	.	.	.	.	.
.	.	.	16ee\Jk	16c\	-ci-	.	.	.	.	.
8G\L	n	8g/L	8dd\L	8Bn\	-en-	.	.	.	.	.
8C\J	.	8e/J	8cc\J	16c\	-ti-	.	.	.	.	.
!	!	!	!	!LO:SIC:o:s:=:v:custos G	!	!	!	!	!	!
.	.	.	.	16c\	-b(us)	.	.	.	.	.
!	!	!	!	!LO:LB:g=original	!	!	!	!	!	!
4GG/	4	4d/	4b\	4G\	e-	.	.	.	.	.
.	3	.	.	.	.	.	.	.	.	.
=31	=31	=31	=31	=31	=31	=31	=31	=31	=31	=31
4C/	.	4e/	4cc\	8C,</	-um	.	.	.	1ryy	1ryy
.	.	.	.	8G\	lau-	.	.	.	.	.
8C/L	.	8r	4r	16C\LL	-da-	.	.	.	.	.
.	.	.	.	16E\	.	.	.	.	.	.
8D/J	.	8g/	.	16F\	.	.	.	.	.	.
.	.	.	.	16G\JJ	.	.	.	.	.	.
8E\L	6	16c/LL	16r	8c\	.	.	.	.	.	.
.	.	16e/	16e/LL	.	.	.	.	.	.	.
8C\	.	16f/	16f/	16B\	-ti-	.	.	.	.	.
.	.	16g/JJ	16g/JJ	16B\	-o	.	.	.	.	.
8F\	.	8a/L	16a\LL	8A\	e-	.	.	.	.	.
.	.	.	16cc\	.	.	.	.	.	.	.
8E\J	.	8g/J	16dd\	16B\LL	-jus	.	.	.	.	.
.	.	.	16ee\JJ	16c\JJ	.	.	.	.	.	.
=32	=32	=32	=32	=32	=32	=32	=32	=32	=32	=32
!	!	!	!	!	!	!LO:SIC:o:s:=:v:custos b	!	!	!	!
4D\	.	8f/L	16ff\LL	16d\LL	ma-	1r	.	.	1ryy	1ryy
.	.	.	16ee\	16c\	.	.	.	.	.	.
.	.	8f/J	16dd\	16B\	.	.	.	.	.	.
.	.	.	16cc\JJ	16A\JJ	.	.	.	.	.	.
4E\	#	8e/L	8b/L	8G#X\	-net	.	.	.	.	.
.	.	8e/J	8a/J	8E\	in	.	.	.	.	.
!	!	!	!LO:SIC:s:=:v:8a	!	!	!	!	!	!	!
8A\L	.	8e/L	8g#X/	8A\	ſae-	.	.	.	.	.
!	!	!	!LO:SIC:s:=:v:4b	!	!	!	!	!	!	!
8G\J	6	8e/	4a/	16Gn\	-cu-	.	.	.	.	.
.	.	.	.	16G\	-lum	.	.	.	.	.
4F\	7	8e/	.	8.F\	ſae-	.	.	.	.	.
!	!	!	!LO:SIC:s:=:v:8a	!	!	!	!	!	!	!
.	6	8d/J	8g#/	.	.	.	.	.	.	.
.	.	.	.	16F\	-cu-	.	.	.	.	.
!	!	!	!	!	!	!LO:LB:g=original	!	!	!	!
=33	=33	=33	=33	=33	=33	=33	=33	=33	=33	=33
!	!	!	!LO:SIC:s:=:v:4b	!	!	!	!	!	!	!
[2E\	#	4e/	4a/	8E\	-li.	8r	.	.	1ryy	1ryy
.	.	.	.	4G#X\	Glo-	4b\	Glo-	.	.	.
.	.	4r	4r	.	.	.	.	.	.	.
.	.	.	.	16F#X\	-ri-	16a\	-ri-	.	.	.
.	.	.	.	16G#\	-a	16b\	-a	.	.	.
2E\]	6 4	2r	2r	8A\	Pa-	8cc\	Pa-	.	.	.
.	7 5	.	.	16G#X\	-tri,	16b\	-tri,	.	.	.
.	.	.	.	16A\	et	16cc\	et	.	.	.
!	!	!	!	!LO:LB:g=original	!	!	!	!	!	!
.	6 4	.	.	8.B\	Fi-	8.dd\	Fi-	.	.	.
.	.	.	.	16A\	-li-	16cc\	-li-	.	.	.
!	!	!	!LO:PB:g=original	!	!	!	!	!	!	!
=34	=34	=34	=34	=34	=34	=34	=34	=34	=34	=34
8E\L	5 #	1r	1r	8G#X\	-o,	8b\	-o,	.	1ryy	1ryy
8E\	.	.	.	8G#\L	et	4ee\	et	.	.	.
8F#X\	x 7	.	.	8A\J	.	.	.	.	.	.
8G#X\J	6 5	.	.	8B\	Spi-	8dd\	ſpi-	.	.	.
!LO:TX:a:t=P:problem:mixed  beam	!	!	!	!	!	!	!	!	!	!
8A\L	.	.	.	8c\	-ri-	8cc\	-ri-	.	.	.
8AA/J	.	.	.	16B\	-tu-	16dd\	-tu-	.	.	.
.	.	.	.	16A\	-i	16cc\	-i	.	.	.
!LO:SIC:o:s:=:v:custos E	!	!	!	!	!	!	!	!	!	!
4D\	6	.	.	8d\L	ſan-	16b\LL	ſan-	.	.	.
.	.	.	.	.	.	16cc\JJ	.	.	.	.
.	.	.	.	8c\J	.	16a\LL	.	.	.	.
.	.	.	.	.	.	16b\JJ	.	.	.	.
!LO:LB:g=original	!	!	!	!	!	!	!	!	!	!
=35	=35	=35	=35	=35	=35	=35	=35	=35	=35	=35
8E\L	#	2r	2r	8B\L	.	8g#X\	.	.	1ryy	1ryy
8A\J	.	.	.	8c\J	.	4a\	.	.	.	.
4E\	4	.	.	4B\	.	.	.	.	.	.
.	#	.	.	.	.	8g#\	.	.	.	.
!LO:TX:a:t=P:problem:mixed  beam	!	!	!	!	!	!	!	!	!	!
8AA/L	.	8r	8r	8A\	-cto,	8a,\	-cto,	.	.	.
!LO:TX:a:t=T.	!	!	!	!	!	!	!	!	!	!
8A\	.	8ee\L	8ccc\	16A\	ſi-	16cc\	ſi-	.	.	.
.	.	.	.	16A\	-cut	16cc\	-cut	.	.	.
8G#X\	.	8ee\	16bb\LL	16G#X\	e-	16b\	e-	.	.	.
.	.	.	16ee\	16G#\	-rat	16b\	-rat	.	.	.
8A\J	.	8ee\J	16ccc\	16A\	in	16cc\	in	.	.	.
.	.	.	16ee\JJ	16A\	prin-	16cc\	prin-	.	.	.
!	!	!LO:LB:g=original	!	!	!	!LO:LB:g=original	!	!	!	!
=36	=36	=36	=36	=36	=36	=36	=36	=36	=36	=36
8B\L	6\	8gg#X\L	16ddd\LL	16B\	-ci-	16dd\	-ci-	.	1ryy	1ryy
.	.	.	16ee\	16B\	-pi-	16dd\	-pi-	.	.	.
8E\	.	8gg#\	16bb\	16E\	-o,	16dd,\	-o,	.	.	.
.	.	.	16ee\JJ	16E\	et	16dd\	et	.	.	.
8c\	6	8aa\	16ccc\LL	8c\	nu(n)c,	8ee\	nunc,	.	.	.
.	.	.	16ccc\	.	.	.	.	.	.	.
!	!	!	!	!LO:SIC:o:s:=:v:custos d	!	!	!	!	!	!
8A\J	.	8ee\J	16ccc\	8A\	et	16dd\LL	et	.	.	.
.	.	.	16bb\JJ	.	.	16cc\JJ	.	.	.	.
!	!	!	!	!LO:LB:g=original	!	!	!	!	!	!
8d\L	.	16ff\LL	16aa\LL	8d\	ſem-	8ff\	ſem-	.	.	.
.	.	16a\	16aa\	.	.	.	.	.	.	.
8c\	6	16ee\	16aa\	8c\	-per	8ee,\	-per,	.	.	.
.	.	16a\JJ	16aa\JJ	.	.	.	.	.	.	.
8B\	6\	16dd\LL	16gg#X\LL	8B\	et	8dd\	et	.	.	.
.	.	16a\	16gg#\	.	.	.	.	.	.	.
8A\J	.	16cc\	16aa\	8A\	in	8cc\	in	.	.	.
.	.	16a\JJ	16aa\JJ	.	.	.	.	.	.	.
=37	=37	=37	=37	=37	=37	=37	=37	=37	=37	=37
8G#X\L	6	8b\L	8bb\L	8G#X\	ſae-	8b\	ſae-	.	1ryy	1ryy
8F#X\	.	16cc\L	8aa\J	16F#X\	-cu-	16a\	-cu-	.	.	.
.	.	16dd\JJ	.	16F#\	-la	16a\	-la	.	.	.
8E\	#	8ee\L	8gg#X\L	8E\	ſae-	8g#X/	ſae-	.	.	.
8D\J	.	8ee\J	16aa\L	8D\	-cu-	8e/	-cu-	.	.	.
.	.	.	16bb\JJ	.	.	.	.	.	.	.
!	!	!LO:TX:a:t=P:problem:mixed  beam	!	!	!	!	!	!	!	!
8C\L	6	8aa\L	8ccc\L	8C/	-lo-	4.ee\	-lo-	.	.	.
16D\L	.	8a/J	8bb\J	16D\LL	.	.	.	.	.	.
16E\JJ	.	.	.	16E\JJ	.	.	.	.	.	.
!LO:SIC:s:=:v:4Fn	!	!LO:N:vis=16	!	!LO:SIC:s:=:v:4Fn	!	!	!	!	!	!
4F#\	7	8dd\L	16aa\LL	4F#\	-rum	.	.	.	.	.
.	.	.	16gg#X\	.	.	.	.	.	.	.
!	!	!LO:N:vis=16	!	!	!	!	!	!	!	!
.	6	8cc\J	16aa\	.	.	8dd\	-rum	.	.	.
.	.	.	16bb\JJ	.	.	.	.	.	.	.
=38	=38	=38	=38	=38	=38	=38	=38	=38	=38	=38
!	!	!	!LO:TX:a:t=P:problem:mixed  beam	!	!	!	!	!	!	!
8E\L	7 #	8b\L	8gg#X\L	8E\	a-	8dd\	a-	.	1ryy	1ryy
8A\J	.	8cc\J	8aa\	8A\	-men	8cc\	-men	.	.	.
*	*	*	*	*	*ij	*	*ij	*	*	*
4E\	4	4b/	8e/	4E\	a-	4b\	a-	.	.	.
.	#	.	8gg#\J	.	.	.	.	.	.	.
4AA/	.	4cc#X/	4aa\	4AA/	-men	4a\	-men	.	.	.
4r	.	4r	4r	4r	.	4r	.	.	.	.
*	*	*	*	*	*Xij	*	*Xij	*	*	*
!	!	!LO:LB:g=original	!	!	!	!	!	!	!	!
==	==	==	==	==	==	==	==	==	==	==
*-	*-	*-	*-	*-	*-	*-	*-	*-	*-	*-
!!!system-decoration: [s1,s2][(s3,s4)][(s5,s6)],s7
!!!RDF**kern: > = above
!!!RDF**kern: < = below
!!!EED: Leszek Kubiak
!!!EST: 2020-12-29
!!!ENC: Andrzej Borzym
!!!END: 2020-06-23
